X: 1534
T: Helen's Heart Waltz
C:Helen Jonah, (nee McKay), Jan 2007
B: australian traditional tunes wiki
M:3/4
L:1/8
R: Waltz
Q: 1/4=100
K:G
V:1 
GA|"G"B3AG2|"Am"E4G2|"G"D4B,2|G,4D2|G3AB2|"Am"A4G2|A6-|A4B2||
"G"B3AG2|"Am"E4G2|"G"D4B,2|G,4A,2|B,4"D7"D2|"G"G4F2|G6-|G4e2||
"G"d3BG2|"Am"A2G2E2|"G"D2G3E|D2G2e2|d2B2d2|"C"g4e2|"G"d2B2G2|"D7"A4e2|
"G"d3BG2|"Am"A2G2E2|"G"D2G3E|"G"D2G2GA|"C"B3AG2|"G"E4G2|G6-|G4||
% abcbook-tune_id 6342d53ab7f7898532af399a


% abcbook-boost 0
% abcbook-tablature 
% abcbook-transpose 
% abcbook-lastupdated 1665324369811
% abcbook-soundfonts 
% abcbook-repeats 1
% NFF Book 2007

